dist/static/img/context/res-3.svg

<svg width="80" height="80" viewBox="0 0 80 80" fill="none" xmlns="http://www.w3.org/2000/svg">
<rect width="80" height="80" rx="40" fill="#1F5AFF"/>
<g clip-path="url(#clip0_1115_4114)">
<path d="M54.7892 54.7892C58.5729 51.0054 60.7269 46.027 60.902 40.7047H63.0136C63.4028 40.7047 63.7181 40.3892 63.7181 40.0001C63.7181 39.6111 63.4028 39.2956 63.0136 39.2956H60.902C60.7269 33.9732 58.5729 28.9948 54.7892 25.2111C51.0054 21.4273 46.027 19.2733 40.7047 19.0983V16.9868C40.7047 16.5977 40.3893 16.2822 40.0001 16.2822C39.611 16.2822 39.2956 16.5976 39.2956 16.9868V19.0983C33.9732 19.2733 28.9949 21.4273 25.2112 25.2112C21.4274 28.9949 19.2734 33.9733 19.0984 39.2957H16.9868C16.5976 39.2957 16.2822 39.6111 16.2822 40.0002C16.2822 40.3894 16.5976 40.7048 16.9868 40.7048H19.0984C19.2734 46.0271 21.4274 51.0055 25.2112 54.7893C28.9949 58.573 33.9733 60.727 39.2957 60.9021V63.0137C39.2957 63.4028 39.6111 63.7182 40.0002 63.7182C40.3894 63.7182 40.7048 63.4028 40.7048 63.0137V60.9021C46.027 60.7269 51.0054 58.5729 54.7892 54.7892V54.7892ZM20.5085 40.7047H21.3613C21.7505 40.7047 22.0659 40.3892 22.0659 40.0001C22.0659 39.6111 21.7505 39.2956 21.3613 39.2956H20.5085C20.8724 29.0992 29.0992 20.8723 39.2956 20.5084V21.3613C39.2956 21.7504 39.611 22.0659 40.0001 22.0659C40.3893 22.0659 40.7047 21.7504 40.7047 21.3613V20.5084C50.9011 20.8723 59.1279 29.0992 59.4919 39.2956H58.639C58.2499 39.2956 57.9345 39.611 57.9345 40.0001C57.9345 40.3893 58.2499 40.7047 58.639 40.7047H59.4919C59.1279 50.9011 50.9011 59.1279 40.7047 59.4919V58.6389C40.7047 58.2499 40.3893 57.9344 40.0001 57.9344C39.611 57.9344 39.2956 58.2499 39.2956 58.6389V59.4919C29.0992 59.1279 20.8724 50.9011 20.5085 40.7047V40.7047Z" fill="white"/>
<path d="M18.2506 27.5311C19.4916 27.5311 20.5012 26.5215 20.5012 25.2805V20.5012H25.2805C26.5215 20.5012 27.5311 19.4916 27.5311 18.2507C27.531 17.0096 26.5214 16 25.2804 16H19.0529C17.3695 16 16 17.3695 16 19.0529V25.2805C16 26.5215 17.0096 27.5311 18.2506 27.5311V27.5311ZM17.409 19.0529C17.409 18.1465 18.1464 17.4091 19.0528 17.4091H25.2804C25.7445 17.4091 26.1219 17.7866 26.1219 18.2507C26.1219 18.7147 25.7445 19.0923 25.2804 19.0923H19.7967C19.4075 19.0923 19.0922 19.4076 19.0922 19.7968V25.2805C19.0922 25.7446 18.7146 26.1221 18.2506 26.1221C17.7865 26.1221 17.4091 25.7446 17.4091 25.2805V19.0529H17.409Z" fill="white"/>
<path d="M60.9468 16H59.2762C58.8871 16 58.5717 16.3155 58.5717 16.7045C58.5717 17.0936 58.8871 17.4091 59.2762 17.4091H60.9468C61.8532 17.4091 62.5907 18.1465 62.5907 19.0529V25.2805C62.5907 25.7446 62.2132 26.1221 61.7491 26.1221C61.2849 26.1221 60.9074 25.7446 60.9074 25.2805V19.7967C60.9074 19.4076 60.592 19.0922 60.2028 19.0922H54.7191C54.2551 19.0922 53.8775 18.7146 53.8775 18.2506C53.8775 17.7865 54.255 17.409 54.7191 17.409H56.4581C56.8473 17.409 57.1626 17.0935 57.1626 16.7044C57.1626 16.3154 56.8473 16 56.4583 16H54.7193C53.4783 16 52.4688 17.0096 52.4688 18.2506C52.4688 19.4915 53.4783 20.5011 54.7193 20.5011H59.4986V25.2804C59.4986 26.5214 60.5082 27.531 61.7493 27.531C62.9902 27.531 63.9998 26.5214 63.9998 25.2804V19.0529C63.9997 17.3695 62.6302 16 60.9468 16V16Z" fill="white"/>
<path d="M25.2804 59.4986H20.5012V54.7193C20.5012 53.4783 19.4916 52.4688 18.2506 52.4688C17.0096 52.4688 16 53.4784 16 54.7194V60.947C16 62.6303 17.3695 63.9998 19.0529 63.9998H20.6513C21.0405 63.9998 21.3558 63.6843 21.3558 63.2953C21.3558 62.9062 21.0405 62.5907 20.6513 62.5907H19.0529C18.1465 62.5907 17.4091 61.8533 17.4091 60.9469V54.7193C17.4091 54.2552 17.7865 53.8777 18.2506 53.8777C18.7146 53.8777 19.0922 54.2552 19.0922 54.7193V60.203C19.0922 60.5921 19.4075 60.9076 19.7967 60.9076H25.2804C25.7445 60.9076 26.1219 61.2851 26.1219 61.7492C26.1219 62.2132 25.7445 62.5907 25.2804 62.5907H23.4692C23.0801 62.5907 22.7647 62.9062 22.7647 63.2953C22.7647 63.6843 23.0801 63.9998 23.4692 63.9998H25.2804C26.5214 63.9998 27.531 62.9902 27.531 61.7492C27.531 60.5082 26.5214 59.4986 25.2804 59.4986V59.4986Z" fill="white"/>
<path d="M61.7492 52.4688C60.5082 52.4688 59.4986 53.4783 59.4986 54.7193V59.4986H54.7193C53.4783 59.4986 52.4688 60.5082 52.4688 61.7492C52.4688 62.9901 53.4783 63.9997 54.7193 63.9997H60.9469C62.6303 63.9998 63.9998 62.6303 63.9998 60.9469V54.7193C63.9998 53.4784 62.9902 52.4688 61.7492 52.4688V52.4688ZM62.5908 60.9469C62.5908 61.8533 61.8534 62.5907 60.947 62.5907H54.7194C54.2553 62.5907 53.8778 62.2132 53.8778 61.7492C53.8778 61.2851 54.2552 60.9076 54.7194 60.9076H60.2031C60.5923 60.9076 60.9077 60.5922 60.9077 60.203V54.7193C60.9077 54.2552 61.2852 53.8777 61.7493 53.8777C62.2135 53.8777 62.5909 54.2552 62.5909 54.7193V60.9469H62.5908Z" fill="white"/>
<path d="M42.9457 38.82C43.3349 38.82 43.6503 38.5047 43.6503 38.1155V37.0385C43.6503 36.6495 43.3349 36.334 42.9457 36.334C42.5566 36.334 42.2412 36.6495 42.2412 37.0385V38.1155C42.2412 38.5046 42.5566 38.82 42.9457 38.82Z" fill="white"/>
<path d="M37.0541 38.82C37.4433 38.82 37.7587 38.5047 37.7587 38.1155V37.0385C37.7587 36.6495 37.4433 36.334 37.0541 36.334C36.665 36.334 36.3496 36.6495 36.3496 37.0385V38.1155C36.3497 38.5046 36.6651 38.82 37.0541 38.82Z" fill="white"/>
<path d="M37.6408 41.6642C37.8621 42.1687 38.5921 42.9867 40.0003 42.9867C41.4084 42.9867 42.1384 42.1687 42.3598 41.6642C42.4038 41.5723 42.4292 41.4696 42.4292 41.3608C42.4292 40.9717 42.1138 40.6562 41.7247 40.6562C41.4347 40.6562 41.1859 40.8316 41.0778 41.0818C41.0778 41.0818 41.0776 41.0817 41.0776 41.0816C41.053 41.1324 40.8131 41.5776 40.0003 41.5776C39.1874 41.5776 38.9475 41.1323 38.9229 41.0816C38.9229 41.0816 38.9227 41.0817 38.9227 41.0818C38.8146 40.8315 38.5658 40.6562 38.2758 40.6562C37.8868 40.6562 37.5713 40.9716 37.5713 41.3608C37.5713 41.4695 37.5967 41.5722 37.6408 41.6642V41.6642Z" fill="white"/>
<path d="M49.7338 51.687C49.9936 51.471 50.0634 51.101 49.9002 50.8052C48.1697 47.6677 45.8623 46.0489 44.4422 45.2949C45.9822 44.1237 47.0467 42.3601 47.2958 40.3468C47.4057 40.3592 47.5168 40.3655 47.6291 40.3655C49.2446 40.3655 50.5588 39.0512 50.5588 37.4357C50.5588 36.5096 50.1264 35.6831 49.4535 35.1459C49.9224 33.7322 50.0155 32.1887 49.7105 30.7384C49.3775 29.1543 48.5855 27.8041 47.5376 27.0339C46.1933 26.0459 44.6958 26.0135 44.0219 26.0605C43.4655 25.6016 42.0818 24.6729 40 24.6729C39.0721 24.6729 36.673 24.8085 34.4442 26.0647C34.1053 26.2557 33.9854 26.6854 34.1764 27.0243C34.3673 27.3632 34.7971 27.4831 35.1361 27.2921C37.0742 26.1998 39.1833 26.0818 40.0001 26.0818C42.0796 26.0818 43.2309 27.2349 43.2758 27.2807C43.4376 27.4506 43.6771 27.5281 43.9081 27.4885C43.923 27.486 45.4392 27.2402 46.7033 28.1693C48.4354 29.4422 48.8159 32.3453 48.1593 34.5549C47.9872 34.5233 47.8102 34.5059 47.6292 34.5059C47.3013 34.5059 46.983 34.5596 46.6785 34.6645C45.9438 34.2639 45.0727 33.513 44.1391 32.4716C43.3214 31.5597 42.7483 30.7483 42.7428 30.7404C42.6311 30.5814 42.4587 30.4758 42.2664 30.4482C42.0738 30.4206 41.8788 30.4738 41.7271 30.5949C41.6814 30.6312 37.1958 34.1796 33.4533 34.7138C33.1095 34.5764 32.7466 34.5059 32.3711 34.5059C32.1752 34.5059 31.9838 34.5256 31.7986 34.5624C31.5937 32.2358 32.0567 30.3429 33.1825 28.9293C33.4249 28.625 33.3748 28.1817 33.0704 27.9393C32.766 27.6969 32.3227 27.7472 32.0804 28.0515C30.631 29.8712 30.0842 32.2833 30.4514 35.2254C29.8333 35.7629 29.4414 36.5541 29.4414 37.4356C29.4414 39.0511 30.7557 40.3654 32.3712 40.3654C32.4834 40.3654 32.5946 40.3591 32.7045 40.3467C32.9535 42.3601 34.018 44.1237 35.5581 45.2949C34.138 46.0488 31.8305 47.6676 30.1 50.8051C29.9368 51.1009 30.0066 51.4709 30.2664 51.6869C32.9927 53.9544 36.4496 55.203 40.0003 55.203C43.551 55.203 47.0075 53.9544 49.7338 51.687V51.687ZM47.3537 35.9394C47.4437 35.923 47.5355 35.9148 47.6289 35.9148C48.4674 35.9148 49.1496 36.597 49.1496 37.4355C49.1496 38.2741 48.4674 38.9563 47.6289 38.9563C47.5355 38.9563 47.4436 38.9481 47.3537 38.9317V35.9394ZM32.6462 38.9317C32.5562 38.9481 32.4643 38.9563 32.3709 38.9563C31.5324 38.9563 30.8502 38.2741 30.8502 37.4355C30.8502 36.597 31.5324 35.9148 32.3709 35.9148C32.4643 35.9148 32.5562 35.923 32.6462 35.9394V38.9317ZM44.8221 47.1769C45.8162 47.8618 47.2028 49.0614 48.3688 50.9728C46.7711 52.1886 44.9276 53.0367 42.9799 53.4674L42.2018 49.2058L43.3396 46.3222C43.7132 46.4961 44.2322 46.7704 44.8221 47.1769V47.1769ZM34.0551 39.4393V39.4337V36.042C35.6851 35.7361 37.5569 34.957 39.63 33.7203C40.6584 33.1069 41.502 32.5183 42.0253 32.1353C42.7657 33.0919 44.3403 34.9659 45.9447 35.869V39.4336V39.4392C45.9447 42.7172 43.2779 45.384 39.9999 45.384C36.7219 45.384 34.0551 42.7173 34.0551 39.4393V39.4393ZM37.0199 53.4674C35.0722 53.0367 33.2286 52.1886 31.6309 50.9728C33.3597 48.1382 35.6039 46.8201 36.6608 46.3239L37.7978 49.2057L37.0199 53.4674ZM39.9999 46.7931C40.5923 46.7931 41.1679 46.7208 41.7201 46.5879L40.9934 48.4298H39.0064L38.2797 46.5879C38.8319 46.7208 39.4075 46.7931 39.9999 46.7931V46.7931ZM39.1146 49.8388H40.8851L41.5904 53.7012C41.0642 53.7624 40.5333 53.794 39.9999 53.794C39.4665 53.794 38.9356 53.7624 38.4094 53.7012L39.1146 49.8388Z" fill="white"/>
</g>
<defs>
<clipPath id="clip0_1115_4114">
<rect width="48" height="48" fill="white" transform="translate(16 16)"/>
</clipPath>
</defs>
</svg>

<svg width="80" height="80" viewBox="0 0 80 80" fill="none" xmlns="http://www.w3.org/2000/svg"><rect width="80" height="80" rx="40" fill="#1F5AFF"/><g clip-path="url(#clip0_1115_4114)" fill="#fff"><path d="M54.79 54.79a20.767 20.767 0 006.112-14.085h2.112a.705.705 0 000-1.41h-2.112a20.767 20.767 0 00-6.113-14.084 20.766 20.766 0 00-14.084-6.113v-2.111a.705.705 0 10-1.41 0v2.111a20.765 20.765 0 00-14.084 6.113 20.766 20.766 0 00-6.113 14.085h-2.111a.705.705 0 100 1.409h2.111a20.766 20.766 0 006.113 14.084 20.767 20.767 0 0014.085 6.113v2.112a.704.704 0 101.409 0v-2.112a20.768 20.768 0 0014.084-6.113zM20.508 40.704h.852a.705.705 0 100-1.41h-.852c.363-10.196 8.59-18.423 18.787-18.787v.853a.705.705 0 101.409 0v-.853c10.196.364 18.423 8.591 18.787 18.788h-.853a.704.704 0 100 1.409h.853c-.364 10.196-8.59 18.423-18.787 18.787v-.853a.705.705 0 00-1.41 0v.853c-10.196-.364-18.423-8.59-18.787-18.787zM18.25 27.531a2.253 2.253 0 002.251-2.25V20.5h4.78c1.24 0 2.25-1.01 2.25-2.25a2.254 2.254 0 00-2.25-2.251h-6.228A3.056 3.056 0 0016 19.053v6.227a2.254 2.254 0 002.25 2.251zm-.841-8.478c0-.907.737-1.644 1.644-1.644h6.227a.842.842 0 010 1.683h-5.483a.704.704 0 00-.705.705v5.483a.843.843 0 01-1.683 0v-6.227zM60.947 16h-1.67a.705.705 0 000 1.41h1.67c.906 0 1.644.736 1.644 1.643v6.227a.843.843 0 01-1.684 0v-5.483a.705.705 0 00-.704-.705h-5.484a.843.843 0 010-1.683h1.74a.705.705 0 000-1.409h-1.74a2.253 2.253 0 00-2.25 2.25 2.254 2.254 0 002.25 2.251h4.78v4.78c0 1.24 1.01 2.25 2.25 2.25 1.241 0 2.25-1.01 2.25-2.25v-6.228A3.056 3.056 0 0060.948 16zM25.28 59.499h-4.779v-4.78c0-1.24-1.01-2.25-2.25-2.25A2.253 2.253 0 0016 54.719v6.228A3.056 3.056 0 0019.053 64h1.598a.704.704 0 100-1.41h-1.598a1.646 1.646 0 01-1.644-1.643v-6.228a.842.842 0 011.683 0v5.484c0 .39.316.705.705.705h5.483a.842.842 0 010 1.683h-1.81a.705.705 0 000 1.409h1.81a2.254 2.254 0 002.251-2.25 2.253 2.253 0 00-2.25-2.251zm36.47-7.03a2.253 2.253 0 00-2.251 2.25v4.78h-4.78a2.253 2.253 0 00-2.25 2.25c0 1.241 1.01 2.25 2.25 2.25h6.228A3.056 3.056 0 0064 60.948V54.72c0-1.24-1.01-2.25-2.25-2.25zm.84 8.478c0 .906-.737 1.644-1.643 1.644h-6.228a.842.842 0 010-1.683h5.484c.39 0 .705-.316.705-.705v-5.484a.843.843 0 011.683 0v6.228z"/><path d="M42.946 38.82a.704.704 0 00.704-.705v-1.077a.705.705 0 00-1.409 0v1.078c0 .389.316.704.705.704zm-5.892 0c.39 0 .705-.315.705-.705v-1.077a.705.705 0 00-1.41 0v1.078c0 .389.316.704.705.704zm.586 2.844c.222.505.952 1.323 2.36 1.323s2.138-.818 2.36-1.323a.705.705 0 10-1.282-.582c-.025.05-.265.496-1.078.496-.813 0-1.053-.446-1.077-.496a.705.705 0 10-1.282.582z"/><path d="M49.734 51.687a.704.704 0 00.166-.882c-1.73-3.137-4.038-4.756-5.458-5.51a7.355 7.355 0 002.854-4.948 2.933 2.933 0 003.263-2.911c0-.926-.433-1.753-1.105-2.29a8.532 8.532 0 00.257-4.408c-.334-1.584-1.125-2.934-2.173-3.704-1.345-.988-2.842-1.02-3.516-.973-.556-.46-1.94-1.388-4.022-1.388-.928 0-3.327.136-5.556 1.392a.705.705 0 00.692 1.227c1.938-1.092 4.047-1.21 4.864-1.21 2.08 0 3.23 1.153 3.276 1.199a.71.71 0 00.632.207c.015-.002 1.531-.248 2.795.681 1.732 1.273 2.113 4.176 1.456 6.386a2.932 2.932 0 00-1.48.11c-.735-.401-1.606-1.152-2.54-2.193a21.246 21.246 0 01-1.396-1.732.704.704 0 00-1.016-.145c-.046.036-4.531 3.585-8.274 4.119a2.899 2.899 0 00-1.654-.152c-.205-2.326.258-4.22 1.383-5.633a.704.704 0 10-1.102-.877c-1.449 1.82-1.996 4.231-1.629 7.173a2.923 2.923 0 00-1.01 2.21 2.933 2.933 0 003.264 2.912 7.354 7.354 0 002.853 4.948c-1.42.754-3.727 2.373-5.458 5.51a.704.704 0 00.166.882A15.25 15.25 0 0040 55.203a15.25 15.25 0 009.734-3.516zm-2.38-15.748a1.522 1.522 0 011.796 1.496 1.522 1.522 0 01-1.796 1.497v-2.993zm-14.708 2.993a1.522 1.522 0 01-1.796-1.496 1.522 1.522 0 011.796-1.497v2.993zm12.176 8.245c.994.685 2.38 1.884 3.547 3.796a13.837 13.837 0 01-5.39 2.494l-.777-4.261 1.138-2.884c.373.174.892.448 1.482.855zm-10.767-7.738v-3.397c1.63-.306 3.502-1.085 5.575-2.322a31.123 31.123 0 002.395-1.585c.74.957 2.315 2.83 3.92 3.734v3.57A5.951 5.951 0 0140 45.384a5.951 5.951 0 01-5.945-5.945zm2.965 14.028a13.837 13.837 0 01-5.39-2.494c1.73-2.835 3.974-4.153 5.03-4.65l1.138 2.883-.778 4.261zM40 46.793c.592 0 1.168-.072 1.72-.205l-.727 1.842h-1.987l-.726-1.842a7.342 7.342 0 001.72.205zm-.885 3.046h1.77l.705 3.862a13.766 13.766 0 01-3.18 0l.705-3.862z"/></g><defs><clipPath id="clip0_1115_4114"><path fill="#fff" transform="translate(16 16)" d="M0 0h48v48H0z"/></clipPath></defs></svg>
